svgs/plutotv.svg

<svg xmlns="http://www.w3.org/2000/svg" viewBox="0 0 48 48"><path d="M34.42 14.987a2.244 2.244 0 0 1-2.235-2.235v-1.453a2.243 2.243 0 0 1 2.235-2.235 2.244 2.244 0 0 1 2.235 2.235v1.453a2.247 2.247 0 0 1-.656 1.579 2.247 2.247 0 0 1-1.579.656ZM21.34 9.064v3.688a2.24 2.24 0 0 0 2.235 2.235 2.244 2.244 0 0 0 2.235-2.235V9.064m0 3.688v2.235m3.539-7.823v7.823M28.12 9.064h2.347M18.189 6.047v7.823a1.06 1.06 0 0 0 .263.764 1.062 1.062 0 0 0 .854.354h.335m-8.273-2.236a2.24 2.24 0 0 0 2.235 2.235 2.243 2.243 0 0 0 2.235-2.235v-1.453a2.24 2.24 0 0 0-2.235-2.235 2.244 2.244 0 0 0-2.235 2.235m0-2.235v8.941m17.421 9.952v6.117a1.706 1.706 0 0 0 1.706 1.706" fill="none" stroke="#000" stroke-width="2" stroke-linecap="round" stroke-linejoin="round"/><path d="M27.559 29.857h5.242l2.235 5.923 2.235-5.923" fill="none" stroke="#000" stroke-width="2" stroke-linecap="round" stroke-linejoin="round"/><path d="M32.415 21.784a10.086 10.086 0 0 0-5.944 18.255 10.085 10.085 0 0 0 5.944 1.914c2.674 0 5.241-1.063 7.131-2.953a10.085 10.085 0 0 0-7.131-17.216Z" fill="none" stroke="#000" stroke-width="2" stroke-linecap="round" stroke-linejoin="round"/><path d="M22.331 31.869a10.08 10.08 0 0 1 7.281-9.682 10.09 10.09 0 0 0-12.222 6.026 10.09 10.09 0 0 0 4.939 12.701 10.089 10.089 0 0 0 7.283.636 10.085 10.085 0 0 1-7.281-9.681Z" fill="none" stroke="#000" stroke-width="2" stroke-linecap="round" stroke-linejoin="round"/><path d="M11.129 31.869a10.08 10.08 0 0 1 7.281-9.682 10.09 10.09 0 0 0-12.222 6.026 10.09 10.09 0 0 0 4.939 12.701 10.089 10.089 0 0 0 7.283.636 10.085 10.085 0 0 1-7.281-9.681Z" fill="none" stroke="#000" stroke-width="2" stroke-linecap="round" stroke-linejoin="round"/><path d="M16.724 31.869a10.087 10.087 0 0 1 7.282-9.682 10.089 10.089 0 0 0-12.222 6.026 10.09 10.09 0 0 0 4.939 12.701 10.089 10.089 0 0 0 7.283.636 10.081 10.081 0 0 1-7.282-9.681Z" fill="none" stroke="#000" stroke-width="2" stroke-linecap="round" stroke-linejoin="round"/></svg>

<svg
    xmlns="http://www.w3.org/2000/svg"
    viewBox="0 0 48 48"
    id="vector">
    <path
        id="path"
        d="M 34.42 14.987 C 33.828 14.985 33.26 14.749 32.841 14.33 C 32.423 13.912 32.187 13.344 32.185 12.752 L 32.185 11.299 C 32.187 10.707 32.423 10.139 32.841 9.721 C 33.26 9.302 33.828 9.066 34.42 9.064 C 35.012 9.066 35.58 9.302 35.999 9.721 C 36.417 10.139 36.653 10.707 36.655 11.299 L 36.655 12.752 C 36.653 13.344 36.417 13.912 35.999 14.331 C 35.58 14.749 35.012 14.985 34.42 14.987 Z M 21.34 9.064 L 21.34 12.752 C 21.342 13.344 21.578 13.912 21.997 14.33 C 22.415 14.749 22.983 14.985 23.575 14.987 C 24.167 14.985 24.735 14.749 25.154 14.33 C 25.572 13.912 25.808 13.344 25.81 12.752 L 25.81 9.064 M 25.81 12.752 L 25.81 14.987 M 29.349 7.164 L 29.349 14.987 M 28.12 9.064 L 30.467 9.064 M 18.189 6.047 L 18.189 13.87 C 18.172 14.149 18.267 14.424 18.452 14.634 C 18.638 14.843 18.9 14.971 19.179 14.988 C 19.221 14.99 19.264 14.99 19.306 14.988 L 19.641 14.988 M 11.368 12.752 C 11.369 13.344 11.606 13.912 12.024 14.33 C 12.443 14.749 13.011 14.985 13.603 14.987 C 14.195 14.985 14.763 14.749 15.181 14.331 C 15.6 13.912 15.836 13.344 15.838 12.752 L 15.838 11.299 C 15.836 10.707 15.6 10.139 15.181 9.721 C 14.763 9.302 14.195 9.066 13.603 9.064 C 13.011 9.066 12.443 9.302 12.024 9.721 C 11.606 10.139 11.369 10.707 11.368 11.299 M 11.368 9.064 L 11.368 18.005 M 28.789 27.957 L 28.789 34.074 C 28.789 34.526 28.969 34.96 29.289 35.28 C 29.608 35.6 30.043 35.78 30.495 35.78"
        fill="none"
        stroke="#000000"
        stroke-width="2"
        stroke-linecap="round"
        stroke-linejoin="round"/>
    <path
        id="path_1"
        d="M 27.559 29.857 L 32.801 29.857 L 35.036 35.78 L 37.271 29.857"
        fill="none"
        stroke="#000000"
        stroke-width="2"
        stroke-linecap="round"
        stroke-linejoin="round"/>
    <path
        id="path_2"
        d="M 32.415 21.784 C 30.282 21.777 28.2 22.448 26.471 23.699 C 24.743 24.95 23.455 26.717 22.794 28.746 C 22.134 30.775 22.134 32.962 22.794 34.991 C 23.455 37.02 24.743 38.788 26.471 40.039 C 28.2 41.29 30.282 41.96 32.415 41.953 C 35.089 41.953 37.656 40.89 39.546 39 C 41.437 37.109 42.5 34.542 42.5 31.869 C 42.5 29.195 41.437 26.628 39.546 24.738 C 37.656 22.847 35.089 21.784 32.415 21.784 Z"
        fill="none"
        stroke="#000000"
        stroke-width="2"
        stroke-linecap="round"
        stroke-linejoin="round"/>
    <path
        id="path_3"
        d="M 22.331 31.869 C 22.331 29.684 23.042 27.558 24.355 25.812 C 25.668 24.067 27.514 22.794 29.612 22.187 C 27.191 21.481 24.591 21.709 22.329 22.824 C 20.068 23.939 18.304 25.863 17.39 28.213 C 16.476 30.564 16.476 33.174 17.39 35.524 C 18.304 37.874 20.068 39.798 22.329 40.914 C 24.591 42.029 27.191 42.256 29.612 41.55 C 27.514 40.943 25.668 39.671 24.355 37.925 C 23.042 36.179 22.331 34.053 22.331 31.869 Z"
        fill="none"
        stroke="#000000"
        stroke-width="2"
        stroke-linecap="round"
        stroke-linejoin="round"/>
    <path
        id="path_4"
        d="M 11.129 31.869 C 11.13 29.684 11.84 27.558 13.153 25.813 C 14.466 24.067 16.312 22.794 18.41 22.187 C 15.989 21.481 13.389 21.709 11.127 22.824 C 8.866 23.939 7.102 25.863 6.188 28.213 C 5.274 30.564 5.274 33.174 6.188 35.524 C 7.102 37.874 8.866 39.798 11.127 40.914 C 13.389 42.029 15.989 42.256 18.41 41.55 C 16.312 40.943 14.466 39.671 13.153 37.925 C 11.84 36.179 11.13 34.053 11.129 31.869 Z"
        fill="none"
        stroke="#000000"
        stroke-width="2"
        stroke-linecap="round"
        stroke-linejoin="round"/>
    <path
        id="path_5"
        d="M 16.724 31.869 C 16.725 29.684 17.436 27.558 18.749 25.812 C 20.062 24.067 21.907 22.794 24.006 22.187 C 21.584 21.481 18.985 21.709 16.723 22.824 C 14.461 23.939 12.698 25.863 11.784 28.213 C 10.87 30.564 10.87 33.174 11.784 35.524 C 12.698 37.874 14.461 39.798 16.723 40.914 C 18.985 42.029 21.584 42.256 24.006 41.55 C 21.907 40.943 20.062 39.671 18.749 37.925 C 17.436 36.179 16.725 34.053 16.724 31.869 Z"
        fill="none"
        stroke="#000000"
        stroke-width="2"
        stroke-linecap="round"
        stroke-linejoin="round"/>
</svg>
